X:1
T:Cameronian Reel, The [1]
M:C|
L:1/8
R:Reel
K:D
B|A2 FA DAFA|GFEF GBdB|A2 FA DAFA|GBAG FDDB|
AF F2 DF F2|GFEF GBdB|A2 AB A2 FA|B/c/d AG FD D:|
|:B|Addc d2 dA|B/c/d ef gfed|c/B/A eA fAeA|B/c/d ef gfeg|
faeg faeg|fdec defg|afge fdec|dBAG FA d:|

